icons/orchid-filled.svg

<svg width="256" height="256" viewBox="0 0 256 256" fill="none" xmlns="http://www.w3.org/2000/svg">
<path d="M196 0H60C26.8629 0 0 26.8629 0 60V196C0 229.137 26.8629 256 60 256H196C229.137 256 256 229.137 256 196V60C256 26.8629 229.137 0 196 0Z" fill="#644064"/>
<path d="M197.497 91.4895C175.966 111.862 145.237 115.529 117.111 118.912C96.3207 121.763 72.8319 126.096 59.1871 143.693C47.4047 159.466 51.1105 182.271 63.463 196.524C66.0285 200.382 74.2952 207.356 75.5875 206.596C64.2612 190.595 64.4132 165.548 80.5285 152.625C97.575 138.334 120.817 139.132 141.398 134.191C153.693 131.854 166.673 127.54 177.885 124.043C162.112 138.182 141.056 143.731 121.444 150.173C104.91 156.027 88.7192 169.614 88.2821 188.371C87.959 201.294 94.1733 216.687 107.4 220.811C142.671 229.059 181.781 214.806 203.484 185.844C227.618 155.209 229.614 109.448 208.101 76.8945C205.574 82.4057 201.868 87.3467 197.497 91.5275V91.4895Z" fill="#F4F4F4"/>
<path d="M33.0187 128.053C32.7526 136.32 35.3751 154.469 38.0167 155.875C40.2972 134.058 57.4006 116.461 77.6017 109.372C111.619 95.9556 151.242 103.481 183.377 84.3252C193.183 79.9543 201.013 66.3096 191.663 57.5298C187.558 54.1851 180.451 46.6025 184.632 56.1615C186.209 67.9819 174.236 75.2794 164.43 78.301C143.716 84.6483 121.748 84.0022 100.539 87.6699C96.9287 88.278 89.3271 89.9504 96.6056 86.5297C116.598 76.9897 141.398 78.206 158.558 62.7748C167.68 55.6484 163.822 41.5665 153.997 37.3097C142.101 32.4257 128.608 32.4257 115.933 33.7559C78.2099 38.1268 45.0481 67.3928 36.0213 104.26C34.0069 112.09 33.0187 120.072 33.0187 128.053Z" fill="#F4F4F4"/>
</svg>

<svg xmlns="http://www.w3.org/2000/svg" width="256" height="256" fill="none"><path fill="#644064" d="M196 0H60C26.863 0 0 26.863 0 60v136c0 33.137 26.863 60 60 60h136c33.137 0 60-26.863 60-60V60c0-33.137-26.863-60-60-60"/><path fill="#F4F4F4" d="M197.497 91.49c-21.531 20.372-52.26 24.039-80.386 27.422-20.79 2.851-44.28 7.184-57.924 24.781-11.782 15.773-8.076 38.578 4.276 52.831 2.565 3.858 10.832 10.832 12.125 10.072-11.327-16.001-11.175-41.048 4.94-53.971 17.047-14.291 40.289-13.493 60.87-18.434 12.295-2.337 25.275-6.651 36.487-10.148-15.773 14.139-36.829 19.688-56.441 26.13-16.534 5.854-32.725 19.441-33.162 38.198-.323 12.923 5.891 28.316 19.118 32.44 35.271 8.248 74.381-6.005 96.084-34.967 24.134-30.635 26.13-76.396 4.617-108.95-2.527 5.512-6.233 10.453-10.604 14.633z"/><path fill="#F4F4F4" d="M33.019 128.053c-.266 8.267 2.356 26.416 4.998 27.822 2.28-21.817 19.384-39.414 39.585-46.503 34.017-13.416 73.64-5.891 105.775-25.047 9.806-4.37 17.636-18.015 8.286-26.795-4.105-3.345-11.212-10.928-7.031-1.369 1.577 11.82-10.396 19.118-20.202 22.14-20.714 6.347-42.682 5.701-63.891 9.369-3.61.608-11.212 2.28-3.933-1.14 19.992-9.54 44.792-8.324 61.952-23.755 9.122-7.127 5.264-21.208-4.561-25.465-11.896-4.884-25.389-4.884-38.064-3.554-37.723 4.37-70.885 33.637-79.912 70.504a95.4 95.4 0 0 0-3.002 23.793"/></svg>
